svgs/light/credit-card-front.svg

<svg xmlns="http://www.w3.org/2000/svg" viewBox="0 0 576 512"><!-- Font Awesome Pro 6.0.0-alpha2 by @fontawesome - https://fontawesome.com License - https://fontawesome.com/license (Commercial License) --><path d="M176 352H112C103.164 352 96 359.162 96 368C96 376.836 103.164 384 112 384H176C184.836 384 192 376.836 192 368C192 359.162 184.836 352 176 352ZM176 288H112C103.164 288 96 295.162 96 304C96 312.836 103.164 320 112 320H176C184.836 320 192 312.836 192 304C192 295.162 184.836 288 176 288ZM368 352H240C231.164 352 224 359.162 224 368C224 376.836 231.164 384 240 384H368C376.836 384 384 376.836 384 368C384 359.162 376.836 352 368 352ZM512 32H64C28.654 32 0 60.652 0 96V416C0 451.346 28.654 480 64 480H512C547.348 480 576 451.346 576 416V96C576 60.652 547.348 32 512 32ZM544 416C544 433.645 529.645 448 512 448H64C46.355 448 32 433.645 32 416V96C32 78.355 46.355 64 64 64H512C529.645 64 544 78.355 544 96V416ZM496 96H368C359.156 96 352 103.156 352 112V208C352 216.844 359.156 224 368 224H496C504.844 224 512 216.844 512 208V112C512 103.156 504.844 96 496 96ZM480 192H384V128H480V192ZM464 288H432C423.164 288 416 295.162 416 304C416 312.836 423.164 320 432 320H464C472.836 320 480 312.836 480 304C480 295.162 472.836 288 464 288ZM368 288H240C231.164 288 224 295.162 224 304C224 312.836 231.164 320 240 320H368C376.836 320 384 312.836 384 304C384 295.162 376.836 288 368 288Z"/></svg>

<svg xmlns="http://www.w3.org/2000/svg" viewBox="0 0 576 512"><!--! Font Awesome Pro 6.4.0 by @fontawesome - https://fontawesome.com License - https://fontawesome.com/license (Commercial License) Copyright 2023 Fonticons, Inc. --><path d="M512 64c17.7 0 32 14.3 32 32V416c0 17.7-14.3 32-32 32H64c-17.7 0-32-14.3-32-32V96c0-17.7 14.3-32 32-32H512zM64 32C28.7 32 0 60.7 0 96V416c0 35.3 28.7 64 64 64H512c35.3 0 64-28.7 64-64V96c0-35.3-28.7-64-64-64H64zM96 304c0 8.8 7.2 16 16 16H464c8.8 0 16-7.2 16-16s-7.2-16-16-16H112c-8.8 0-16 7.2-16 16zm0 64c0 8.8 7.2 16 16 16h64c8.8 0 16-7.2 16-16s-7.2-16-16-16H112c-8.8 0-16 7.2-16 16zm144-16c-8.8 0-16 7.2-16 16s7.2 16 16 16H368c8.8 0 16-7.2 16-16s-7.2-16-16-16H240zM400 144h64c4.4 0 8 3.6 8 8v48c0 4.4-3.6 8-8 8H400c-4.4 0-8-3.6-8-8V152c0-4.4 3.6-8 8-8zm-40 8v48c0 22.1 17.9 40 40 40h64c22.1 0 40-17.9 40-40V152c0-22.1-17.9-40-40-40H400c-22.1 0-40 17.9-40 40z"/></svg>
